localPackages/DesignSystem/Sources/DesignSystem/Resources/Assets.xcassets/IconSet/ic-brand-apple.imageset/ic-brand-apple.svg

<svg width="24" height="24" viewBox="0 0 24 24" fill="none" xmlns="http://www.w3.org/2000/svg">
<g id="ic-brand-apple">
<path id="Icon" fill-rule="evenodd" clip-rule="evenodd" d="M7.20574 22.0188C6.79465 21.7396 6.42978 21.3978 6.12436 21.0059C5.79124 20.6035 5.4805 20.1831 5.19355 19.7465C4.53195 18.7655 4.01128 17.6965 3.64677 16.5708C3.22764 15.3551 3.01031 14.0789 3.00342 12.7929C2.96394 11.5443 3.2669 10.3088 3.87947 9.22021C4.30223 8.43597 4.9319 7.78262 5.70002 7.33122C6.44565 6.86932 7.30078 6.61419 8.17761 6.59206C8.51019 6.60091 8.84075 6.64682 9.16317 6.72894C9.40956 6.79738 9.72439 6.90689 10.094 7.04377L10.9153 7.37229C11.137 7.46399 11.3735 7.51499 11.6134 7.52286C11.8046 7.51219 11.9934 7.47534 12.1746 7.41335C12.3115 7.41335 12.5442 7.29016 12.8864 7.13959L13.694 6.83844C13.9945 6.74169 14.3008 6.66397 14.6111 6.60574C14.943 6.56507 15.2785 6.56507 15.6104 6.60574C16.1912 6.64491 16.7632 6.76944 17.3077 6.97533C18.1779 7.30675 18.9239 7.89975 19.4431 8.67268C19.2164 8.80903 19.0053 8.96968 18.8134 9.15177C18.387 9.54837 18.0266 10.0105 17.7457 10.5206C17.364 11.1865 17.1701 11.9434 17.1845 12.7107C17.1751 13.5946 17.4275 14.4614 17.91 15.202C18.265 15.7494 18.7314 16.2159 19.2788 16.5708C19.5043 16.7311 19.7478 16.8644 20.0043 16.9678C19.9061 17.2944 19.7872 17.6144 19.6484 17.926C19.3479 18.6272 18.986 19.3006 18.567 19.9382C18.2868 20.3594 17.9853 20.766 17.6636 21.1564C17.3752 21.529 17.0285 21.8525 16.637 22.1146C16.2642 22.3638 15.8261 22.4972 15.3777 22.4979C15.0726 22.5096 14.7677 22.4726 14.4742 22.3884C14.2225 22.3069 13.9757 22.211 13.7351 22.1009C13.4518 21.9461 13.1592 21.8089 12.859 21.6903C12.5478 21.5973 12.2255 21.5466 11.9008 21.5397C11.5588 21.543 11.2185 21.589 10.8879 21.6766C10.6166 21.7474 10.3512 21.8389 10.094 21.9504C9.73807 22.1009 9.49168 22.2104 9.3548 22.2515C9.0741 22.3347 8.78473 22.3852 8.49244 22.4021C8.03021 22.3951 7.57938 22.2575 7.19205 22.0051L7.20574 22.0188ZM13.1738 5.93502C12.6588 6.21583 12.076 6.34849 11.4902 6.31829C11.4087 5.71499 11.489 5.10088 11.7229 4.53881C11.9259 4.00261 12.2226 3.5067 12.5989 3.07416C12.9838 2.62783 13.4479 2.25656 13.9678 1.97909C14.4698 1.70378 15.0255 1.54035 15.5967 1.5C15.6641 2.11112 15.5891 2.72955 15.3777 3.30686C15.1723 3.86276 14.8763 4.3808 14.5016 4.83995C14.1217 5.29137 13.6566 5.66348 13.1328 5.93502H13.1738Z" fill="#0F0F0F"/>
</g>
</svg>

<svg xmlns="http://www.w3.org/2000/svg" width="24" height="24" viewBox="0 0 24 24">
  <g class="ic-brand-apple">
    <path fill-rule="evenodd" d="M7.206 22.019a4.766 4.766 0 0 1-1.082-1.013 14.239 14.239 0 0 1-.93-1.26 12.648 12.648 0 0 1-1.547-3.175 11.785 11.785 0 0 1-.644-3.778A6.844 6.844 0 0 1 3.88 9.22 4.873 4.873 0 0 1 5.7 7.331a4.941 4.941 0 0 1 2.478-.739c.332.009.663.055.985.137.247.068.561.178.931.315l.821.328c.222.092.459.143.698.15.192-.01.38-.047.562-.109.136 0 .37-.123.711-.273l.808-.302c.3-.096.607-.174.917-.232.332-.04.667-.04 1 0 .58.039 1.152.163 1.697.37.87.33 1.616.924 2.135 1.697a3.642 3.642 0 0 0-.63.479 5.478 5.478 0 0 0-1.067 1.369 4.244 4.244 0 0 0-.561 2.19c-.01.884.242 1.75.725 2.491a4.64 4.64 0 0 0 1.369 1.369c.225.16.469.293.725.397a8.055 8.055 0 0 1-.356.958 12.96 12.96 0 0 1-1.081 2.012c-.28.421-.582.828-.903 1.218a4.378 4.378 0 0 1-1.027.959c-.373.249-.81.382-1.26.383a2.876 2.876 0 0 1-.903-.11 6.84 6.84 0 0 1-.739-.287 7.818 7.818 0 0 0-.876-.41 3.615 3.615 0 0 0-.958-.151 4.11 4.11 0 0 0-1.013.137c-.271.07-.537.162-.794.273-.356.15-.602.26-.74.302-.28.083-.57.133-.862.15a2.45 2.45 0 0 1-1.3-.397l.014.014Zm5.968-16.084a3.175 3.175 0 0 1-1.684.383 3.435 3.435 0 0 1 .233-1.78c.203-.535.5-1.031.876-1.464a4.779 4.779 0 0 1 1.369-1.095 3.97 3.97 0 0 1 1.629-.479 3.985 3.985 0 0 1-.22 1.807 5.366 5.366 0 0 1-.875 1.533 4.49 4.49 0 0 1-1.37 1.095h.042Z" class="Icon"/>
  </g>
</svg>
